images/trst.svg

<svg height="250" viewBox="0 0 250 250" width="250" xmlns="http://www.w3.org/2000/svg"><path d="m1885.259132 995.27002c0 491.53898-398.450132 889.989112-889.989112 889.989112-491.538981 0-889.989113-398.450132-889.989113-889.989112 0-491.538981 398.450132-889.989113 889.989113-889.989113 491.53898 0 889.989112 398.450132 889.989112 889.989113zm0 0" fill="none" stroke="#63c6bb" stroke-miterlimit="10" stroke-width="210.539993" transform="scale(.125594)"/><path d="m68.175781 64.339844h113.648438v28.507812h-39.714844v104.003906h-34.527344v-103.890624h-39.40625zm0 0" fill="#63c6bb"/></svg>

<svg xmlns="http://www.w3.org/2000/svg" xmlns:xlink="http://www.w3.org/1999/xlink" width="250px" height="250px" viewBox="0 0 250 250" version="1.1">
<g id="surface1">
<path style="fill:none;stroke-width:210.539993;stroke-linecap:butt;stroke-linejoin:miter;stroke:rgb(38.82353%,77.64706%,73.333335%);stroke-opacity:1;stroke-miterlimit:10;" d="M 1885.259132 995.27002 C 1885.259132 1486.809 1486.809 1885.259132 995.27002 1885.259132 C 503.731039 1885.259132 105.280907 1486.809 105.280907 995.27002 C 105.280907 503.731039 503.731039 105.280907 995.27002 105.280907 C 1486.809 105.280907 1885.259132 503.731039 1885.259132 995.27002 Z M 1885.259132 995.27002 " transform="matrix(0.125594,0,0,0.125594,0,0)"/>
<path style=" stroke:none;fill-rule:nonzero;fill:rgb(38.82353%,77.64706%,73.333335%);fill-opacity:1;" d="M 68.175781 64.339844 L 181.824219 64.339844 L 181.824219 92.847656 L 142.109375 92.847656 L 142.109375 196.851562 L 107.582031 196.851562 L 107.582031 92.960938 L 68.175781 92.960938 Z M 68.175781 64.339844 "/>
</g>
</svg>
